X: 1373
T: Mu`tâd Edeli...
C: Şevki Bey
O: Turkey
F: http://compmusic.upf.edu/node/140
N: yegah--sarki--curcuna--mutad_edeli--sevki_bey
N: makam= yegah
N: form= sarki
N: usul= curcuna = 10/8
M: 10/8
L: 1/16
K: C _2/4B ^f  
Q: 1/4=210
%%MIDI tuningsystem comma53
d8-d2d4c2 B2A2  | c8-c2c4B2 A2G2  | B8-B2B4A2 G2^3/4F2  | \
w:  ARANAĞME  |   |   | 
.A4 G2^3/4F2 E2.G4F2 E2D2  | 
w:   | 
D3E ^3/4F2G2 A2=B2 ^3/4c2d4c2  | d2g2 ^3/4f2e2 d2d2 ^3/4c2d4z2  | \
w:   |   | 
d8-d2d4c2 B2A2  | 
w:  ARANAĞME  | 
c8-c2c4B2 A2G2  | B8-B2B4A2 G2^3/4F2  | \
w:   |   | 
.A4 G2^3/4F2 E2.G4F2 E2D2  | D3E ^3/4F2G2 A2=B2 A2G2 F2E2  | 
w:   |   | 
E2G2 ^3/4F2E2 D2E2 ^3/4C2D4z2  | d8-d2c2 B2A4G2  | \
w:   |  Mu tâd   | 
c4 B2c4d8z2  | d6g4f2 ^3/4e2f6  | 
w:  e *  de li   |  gir ye yi   | 
g4 ^3/4f2e4f2 g2a4g2  | ^3/4f4 e2d4e4=f2 e2d2  | \
w:  zev  |  ke  *  he ve sim   | 
d8-d2d2 c2d4z2  | d4 c2d4e2 =f2g2 e2d2  | 
w:  yok   SAZ  |  Ağ *  *  lar   | 
d4 c2c2 B2B2 A2A6  | c6c4B2 A2A4G2  | \
w:  ge *  ze *  rim   |  hem de mim   | 
G4 ^3/4F2E4F2 G2A4G2  | ^3/4F6D4E4F2 E2D2  | 
w:  hem   |  mül te me sim   | 
D4 =f2e2 d2e2 c2d4z2  | d4 c2d4e2 =f2g2 e2d2  | \
w:  yok   SAZ  |  Ağ *  *  lar   | 
d4 c2c2 B2B2 A2A6  | 
w:  ge *  ze *  rim   | 
c6c4B2 A2A4G2  | G4 ^3/4F2E4F2 G2A4G2  | \
w:  hem de mim   |  hem   | 
^3/4F6D4E4F2 E2D2  | D6g4^3/4f2 ^3/4e2f4z2  | 
w:  mül te me sim   |  yok   SAZ  | 
d6^3/4f4f2 ^3/4e2f4d2  | ^3/4c6d4(3c2=B2^A2B6  | \
w:  Tak *  rîr_  |  i  me râm   | 
=B6g4^3/4f2 ^3/4e2{g}f6  | g4 ^3/4f2e4f2 g2a4g2  | 
w:  et me ye   |  ar  | 
^3/4f4 e2d4e4=f2 e2d2  | d8-d2d2 c2d4z2  | \
w:  tık  *  ne fe sim   |  yok   SAZ  | 
c6d4e8d2  | e4 =f2e2 d2d2 c2d4z2  | 
w:  Fer *  yâd   |  e *  de *  rim   | 
c6d4d2 c2B4z2  | g4 ^3/4f2e4f2 g2a4g2  | \
w:  boş  ye re   |  fer  | 
^3/4f6d4e4=f2 e2d2  | d8-d2d2 c2d4z2  | 
w:  yâd_ ı  re sim   |  yok   SAZ  | 
d4 c2d4e2 =f2g2 e2d2  | d4 c2c2 B2B2 A2A6  | \
w:  Ağ *  *  lar   |  ge *  ze *  rim   | 
c6c4B2 A2A4G2  | 
w:  hem de mim   | 
G4 ^3/4F2E4F2 G2A4G2  | ^3/4F6D4E4F2 E2D2  | \
w:  hem   |  mül te me sim   | 
D4 =f2e2 d2e2 c2d4z2  | 
w:  yok   SAZ  | 
d4 c2d4e2 =f2g2 e2d2  | d4 c2c2 B2B2 A2A6  | \
w:  Ağ *  *  lar   |  ge *  ze *  rim   | 
c6c4B2 A2A4G2  | 
w:  hem de mim   | 
G4 ^3/4F2E4F2 G2A4G2  | ^3/4F6D4E4F2 E2D2  | \
w:  hem   |  mül te me sim   | 
D4 B2A2 G2^3/4F2 E2D4z2  | 
w:  yok   SAZ KARAR  | 
|


